X: 153
T: Congress Reel
R:reel
M:C|
L:1/8
K:Ador
"Am"eAAG A2 (3Bcd|eaaf "G"gedg|"Am"eA~A2 eAcA|"G"BGGF GABd|
"Am"eAAG ABcd|eaaf "G"gedB|"C"cBcd (3efg ed|"Am"cABG A2 (3Bcd:|
|: "Am"eaag ~a3g|eaag "G"egdg|(3efg dg egdg|"Am"eaab "G"gedg|
"Am"eaag ~a3g|eaag "G"(3efg dB|"C"cBcd (3efg ed|"Am"cABG A2 (3Bcd:|


